Numix-GalliumOS/22/actions/stock_todo.svg

<?xml version="1.0" encoding="UTF-8" standalone="no"?>
<svg
   xmlns:dc="http://purl.org/dc/elements/1.1/"
   xmlns:cc="http://creativecommons.org/ns#"
   xmlns:rdf="http://www.w3.org/1999/02/22-rdf-syntax-ns#"
   xmlns:svg="http://www.w3.org/2000/svg"
   xmlns="http://www.w3.org/2000/svg"
   xmlns:sodipodi="http://sodipodi.sourceforge.net/DTD/sodipodi-0.dtd"
   xmlns:inkscape="http://www.inkscape.org/namespaces/inkscape"
   viewBox="0 0 22 22"
   id="svg2"
   version="1.1"
   inkscape:version="0.91 r13725"
   sodipodi:docname="stock_todo.svg"
   width="22"
   height="22">
  <metadata
     id="metadata98">
    <rdf:RDF>
      <cc:Work
         rdf:about="">
        <dc:format>image/svg+xml</dc:format>
        <dc:type
           rdf:resource="http://purl.org/dc/dcmitype/StillImage" />
        <dc:title></dc:title>
      </cc:Work>
    </rdf:RDF>
  </metadata>
  <sodipodi:namedview
     pagecolor="#ffffff"
     bordercolor="#666666"
     borderopacity="1"
     objecttolerance="10"
     gridtolerance="10"
     guidetolerance="10"
     inkscape:pageopacity="0"
     inkscape:pageshadow="2"
     inkscape:window-width="622"
     inkscape:window-height="982"
     id="namedview96"
     showgrid="true"
     inkscape:zoom="13.906434"
     inkscape:cx="10.477153"
     inkscape:cy="12.489197"
     inkscape:window-x="648"
     inkscape:window-y="32"
     inkscape:window-maximized="0"
     inkscape:current-layer="svg2"
     inkscape:object-nodes="true"
     inkscape:snap-smooth-nodes="true">
    <inkscape:grid
       type="xygrid"
       id="grid4360" />
  </sodipodi:namedview>
  <defs
     id="defs4" />
  <path
     sodipodi:nodetypes="cssssssc"
     id="path3893"
     style="fill:#e6b07f;fill-opacity:1;fill-rule:evenodd;stroke:none"
     d="m 17,4 c 1,0 1,0 1,1 l 0,14 c 0,1 0,1 -1,1 L 5,20 C 4,20 4,20 4,19 L 4,5 C 4,4 4,4 5,4"
     inkscape:connector-curvature="0" />
  <path
     sodipodi:nodetypes="cccc"
     id="path3895"
     style="fill:#ffffff;fill-opacity:1;fill-rule:nonzero;stroke:none"
     d="m 16,3.9999995 -10,0 L 6,18 16,18"
     inkscape:connector-curvature="0" />
  <path
     sodipodi:nodetypes="cccc"
     id="path3897"
     style="fill:#aaaaaa;fill-opacity:1;fill-rule:nonzero;stroke:none"
     d="m 7.0000004,2 0,3.0714283 7.9999996,0 L 15,2"
     inkscape:connector-curvature="0" />
  <g
     id="g34"
     transform="translate(0,-26)" />
  <path
     inkscape:connector-curvature="0"
     style="fill:#888888"
     d="M 10,11.981607 13.529091,8.4525152 15.041559,9.9649834 10,15.006543 C 8.9658342,13.972379 8.00923,13.009647 6.9750642,11.975482 L 8.4875321,10.46914 Z"
     id="path3355" />
</svg>

<svg xmlns="http://www.w3.org/2000/svg" viewBox="0 0 22 22">
 <path d="m 17,4 c 1,0 1,0 1,1 l 0,14 c 0,1 0,1 -1,1 L 5,20 C 4,20 4,20 4,19 L 4,5 C 4,4 4,4 5,4" style="fill:#e6b07f;fill-opacity:1;stroke:none;fill-rule:evenodd"/>
 <path d="m 16 4 -10 0 l 0 14 10 0" style="fill:#fff;fill-opacity:1;stroke:none;fill-rule:nonzero"/>
 <path d="m 7 2 0 3.071 8 0 l 0 -3.071" style="fill:#aaa;fill-opacity:1;stroke:none;fill-rule:nonzero"/>
 <path d="m 10 11.982 3.529 -3.529 1.512 1.512 -5.04 5.04 c -1.034 -1.034 -1.991 -1.997 -3.02 -3.03 l 1.512 -1.506" style="fill:#888"/>
</svg>
